packages/assets/static/images/icons/bus.svg

<svg width="24" height="24" viewBox="0 0 24 24" xmlns="http://www.w3.org/2000/svg">
<path d="M17.25 2.62549H6.75C5.85489 2.62549 4.99645 2.98107 4.36351 3.614C3.73058 4.24694 3.375 5.10538 3.375 6.00049V19.5005C3.375 19.9978 3.57254 20.4747 3.92417 20.8263C4.27581 21.1779 4.75272 21.3755 5.25 21.3755H7.875C8.37228 21.3755 8.84919 21.1779 9.20082 20.8263C9.55246 20.4747 9.75 19.9978 9.75 19.5005V18.0005H14.25V19.5005C14.25 19.9978 14.4475 20.4747 14.7992 20.8263C15.1508 21.1779 15.6277 21.3755 16.125 21.3755H18.75C19.2473 21.3755 19.7242 21.1779 20.0758 20.8263C20.4275 20.4747 20.625 19.9978 20.625 19.5005V6.00049C20.625 5.10538 20.2694 4.24694 19.6365 3.614C19.0035 2.98107 18.1451 2.62549 17.25 2.62549ZM5.625 15.7505V10.5005H18.375V15.7505H5.625ZM6.75 4.87549H17.25C17.5484 4.87549 17.8345 4.99401 18.0455 5.20499C18.2565 5.41597 18.375 5.70212 18.375 6.00049V8.25049H5.625V6.00049C5.625 5.70212 5.74353 5.41597 5.9545 5.20499C6.16548 4.99401 6.45163 4.87549 6.75 4.87549ZM7.5 19.1255H5.625V18.0005H7.5V19.1255ZM16.5 19.1255V18.0005H18.375V19.1255H16.5ZM10.125 13.1255C10.125 13.4222 10.037 13.7122 9.8722 13.9588C9.70738 14.2055 9.47311 14.3978 9.19903 14.5113C8.92494 14.6248 8.62334 14.6545 8.33237 14.5967C8.04139 14.5388 7.77412 14.3959 7.56434 14.1861C7.35456 13.9764 7.2117 13.7091 7.15382 13.4181C7.09594 13.1272 7.12565 12.8256 7.23918 12.5515C7.35271 12.2774 7.54497 12.0431 7.79165 11.8783C8.03832 11.7135 8.32833 11.6255 8.625 11.6255C9.02282 11.6255 9.40436 11.7835 9.68566 12.0648C9.96696 12.3461 10.125 12.7277 10.125 13.1255ZM16.875 13.1255C16.875 13.4222 16.787 13.7122 16.6222 13.9588C16.4574 14.2055 16.2231 14.3978 15.949 14.5113C15.6749 14.6248 15.3733 14.6545 15.0824 14.5967C14.7914 14.5388 14.5241 14.3959 14.3143 14.1861C14.1046 13.9764 13.9617 13.7091 13.9038 13.4181C13.8459 13.1272 13.8756 12.8256 13.9892 12.5515C14.1027 12.2774 14.295 12.0431 14.5416 11.8783C14.7883 11.7135 15.0783 11.6255 15.375 11.6255C15.7728 11.6255 16.1544 11.7835 16.4357 12.0648C16.717 12.3461 16.875 12.7277 16.875 13.1255ZM24 7.50049V9.75049C24 10.0489 23.8815 10.335 23.6705 10.546C23.4595 10.757 23.1734 10.8755 22.875 10.8755C22.5766 10.8755 22.2905 10.757 22.0795 10.546C21.8685 10.335 21.75 10.0489 21.75 9.75049V7.50049C21.75 7.20212 21.8685 6.91597 22.0795 6.70499C22.2905 6.49401 22.5766 6.37549 22.875 6.37549C23.1734 6.37549 23.4595 6.49401 23.6705 6.70499C23.8815 6.91597 24 7.20212 24 7.50049ZM2.25 7.50049V9.75049C2.25 10.0489 2.13147 10.335 1.9205 10.546C1.70952 10.757 1.42337 10.8755 1.125 10.8755C0.826631 10.8755 0.540483 10.757 0.329505 10.546C0.118526 10.335 0 10.0489 0 9.75049L0 7.50049C0 7.20212 0.118526 6.91597 0.329505 6.70499C0.540483 6.49401 0.826631 6.37549 1.125 6.37549C1.42337 6.37549 1.70952 6.49401 1.9205 6.70499C2.13147 6.91597 2.25 7.20212 2.25 7.50049Z"/>
</svg>

<svg viewBox="0 0 24 24" xmlns="http://www.w3.org/2000/svg" aria-hidden="true" fill="currentColor" height="24px" width="24px"><path d="M17.25 2.625H6.75A3.375 3.375 0 0 0 3.375 6v13.5a1.875 1.875 0 0 0 1.875 1.875h2.625A1.875 1.875 0 0 0 9.75 19.5V18h4.5v1.5a1.875 1.875 0 0 0 1.875 1.875h2.625a1.875 1.875 0 0 0 1.875-1.875V6a3.375 3.375 0 0 0-3.375-3.375M5.625 15.75V10.5h12.75v5.25zM6.75 4.875h10.5A1.125 1.125 0 0 1 18.375 6v2.25H5.625V6A1.125 1.125 0 0 1 6.75 4.875m.75 14.25H5.625V18H7.5zm9 0V18h1.875v1.125zm-6.375-6a1.5 1.5 0 1 1-3 0 1.5 1.5 0 0 1 3 0m6.75 0a1.5 1.5 0 1 1-3 0 1.5 1.5 0 0 1 3 0M24 7.5v2.25a1.125 1.125 0 1 1-2.25 0V7.5a1.125 1.125 0 1 1 2.25 0m-21.75 0v2.25a1.125 1.125 0 1 1-2.25 0V7.5a1.125 1.125 0 1 1 2.25 0"/></svg>
